public/image/ksm.svg

<svg width="24" height="24" viewBox="0 0 24 24" fill="none" xmlns="http://www.w3.org/2000/svg">
<g clip-path="url(#clip0_503_310)">
<path d="M23.9729 0.0270996H0.0273438V23.9727H23.9729V0.0270996Z" fill="black" stroke="black" stroke-miterlimit="10"/>
<path d="M19.0648 7.53438C18.8241 7.34014 18.537 7.07483 18.0139 7.00851C17.5231 6.94218 17.0231 7.27855 16.6852 7.50121C16.3472 7.72388 15.7083 8.37766 15.4444 8.57664C15.1806 8.77561 14.5046 8.96038 13.4167 9.62837C12.3287 10.2964 8.06019 13.101 8.06019 13.101L9.1713 13.1152L4.21759 15.7256H4.71296L4 16.2799C4 16.2799 4.62963 16.4504 5.15741 16.1093V16.2657C5.15741 16.2657 11.0556 13.8874 12.1944 14.5033L11.5 14.7118C11.5602 14.7118 12.6806 14.7876 12.6806 14.7876C12.7077 15.025 12.7857 15.2533 12.909 15.4564C13.0322 15.6595 13.1976 15.8323 13.3935 15.9625C14.0694 16.4173 14.0833 16.6684 14.0833 16.6684C14.0833 16.6684 13.7315 16.8152 13.7315 17C13.7315 17 14.25 16.8389 14.7315 16.8531C15.0371 16.865 15.3402 16.9143 15.6343 17C15.6343 17 15.5972 16.801 15.1296 16.6684C14.662 16.5357 14.1991 16.0146 13.9722 15.7303C13.8333 15.5494 13.7427 15.3346 13.7094 15.107C13.6761 14.8794 13.7013 14.6469 13.7824 14.4322C13.9444 14.0011 14.5093 13.7643 15.6759 13.1484C17.0509 12.4188 17.3657 11.8787 17.5602 11.4571C17.7546 11.0354 18.0417 10.1969 18.2037 9.80366C18.4074 9.29674 18.6574 9.0267 18.8657 8.86563C19.0741 8.70455 20 8.34923 20 8.34923C20 8.34923 19.2917 7.71914 19.0648 7.53438Z" fill="white"/>
</g>
<defs>
<clipPath id="clip0_503_310">
<rect width="24" height="24" rx="12" fill="white"/>
</clipPath>
</defs>
</svg>

<svg width="24" height="24" viewBox="0 0 24 24" fill="none" xmlns="http://www.w3.org/2000/svg">
  <g clip-path="url(#a)">
    <path d="M23.973.027H.027v23.946h23.946V.027Z" fill="#000" stroke="#000" stroke-miterlimit="10"/>
    <path d="M19.065 7.534c-.24-.194-.528-.46-1.051-.525-.49-.067-.99.27-1.329.492-.338.223-.977.877-1.24 1.076-.264.199-.94.383-2.028 1.051-1.088.668-5.357 3.473-5.357 3.473l1.111.014-4.953 2.61h.495L4 16.28s.63.17 1.157-.17v.156s5.899-2.379 7.037-1.763l-.694.209c.06 0 1.18.076 1.18.076.028.237.106.465.229.668.123.204.289.376.484.507.676.454.69.705.69.705s-.351.147-.351.332c0 0 .518-.161 1-.147.305.012.608.061.902.147 0 0-.037-.199-.504-.332-.468-.132-.93-.653-1.158-.938a1.343 1.343 0 0 1-.19-1.298c.162-.43.727-.668 1.894-1.284 1.375-.73 1.69-1.27 1.884-1.69.195-.423.482-1.261.644-1.654.203-.507.453-.777.662-.938.208-.161 1.134-.517 1.134-.517s-.708-.63-.935-.815Z" fill="#fff"/>
  </g>
  <defs>
    <clipPath id="a">
      <rect width="24" height="24" rx="12" fill="#fff"/>
    </clipPath>
  </defs>
</svg>
